apps/scalable/libreoffice-writer.svg

<?xml version="1.0" encoding="UTF-8" standalone="no"?>
<svg
   height="48"
   width="48"
   version="1.1"
   id="svg8"
   sodipodi:docname="97C1_wordpad.0.svg"
   inkscape:version="1.1.2 (0a00cf5339, 2022-02-04)"
   xmlns:inkscape="http://www.inkscape.org/namespaces/inkscape"
   xmlns:sodipodi="http://sodipodi.sourceforge.net/DTD/sodipodi-0.dtd"
   xmlns="http://www.w3.org/2000/svg"
   xmlns:svg="http://www.w3.org/2000/svg"
   xmlns:rdf="http://www.w3.org/1999/02/22-rdf-syntax-ns#"
   xmlns:cc="http://creativecommons.org/ns#"
   xmlns:dc="http://purl.org/dc/elements/1.1/">
  <metadata
     id="metadata14">
    <rdf:RDF>
      <cc:Work
         rdf:about="">
        <dc:format>image/svg+xml</dc:format>
        <dc:type
           rdf:resource="http://purl.org/dc/dcmitype/StillImage" />
        <dc:title />
      </cc:Work>
    </rdf:RDF>
  </metadata>
  <defs
     id="defs12" />
  <sodipodi:namedview
     pagecolor="#ffffff"
     bordercolor="#666666"
     borderopacity="1"
     objecttolerance="10"
     gridtolerance="10"
     guidetolerance="10"
     inkscape:pageopacity="0"
     inkscape:pageshadow="2"
     inkscape:window-width="1920"
     inkscape:window-height="1031"
     id="namedview10"
     showgrid="false"
     inkscape:zoom="9.4583333"
     inkscape:cx="-5.7621146"
     inkscape:cy="27.330397"
     inkscape:window-x="0"
     inkscape:window-y="0"
     inkscape:window-maximized="1"
     inkscape:current-layer="svg8"
     inkscape:document-rotation="0"
     inkscape:pagecheckerboard="0" />
  <path
     id="path2"
     style="fill:#81a1c1;fill-opacity:1;stroke-width:1.15035"
     d="M 23.804688 1.3046875 A 22.696228 22.696232 0 0 0 1.6914062 19.076172 L 1.6914062 28.923828 A 22.696228 22.696232 0 0 0 23.804688 46.695312 A 22.696228 22.696232 0 0 0 46.5 24 A 22.696228 22.696232 0 0 0 23.804688 1.3046875 z " />
  <g
     fill="none"
     stroke="#fefefe"
     stroke-linecap="round"
     stroke-width="2"
     id="g16"
     transform="translate(-0.18584736,1.0244838)">
    <path
       d="M 22.5,23 H 30"
       id="path4" />
    <path
       d="m 32.5,23 h 5"
       id="path6" />
    <path
       d="m 22.5,28 h 10"
       id="path8" />
    <path
       d="m 22.5,33 h 5"
       id="path10" />
    <path
       d="m 32.5,33 h 5"
       id="path12" />
    <path
       d="M 22.5,38 H 35"
       id="path14-3" />
  </g>
  <path
     id="path839"
     style="fill:#5e81ac;fill-opacity:1;stroke-width:1.15035"
     d="M 23.804688 1.3046875 C 11.269908 1.3046875 1.1074229 11.465217 1.1074219 24 C 1.1074219 36.534782 11.269906 46.695313 23.804688 46.695312 L 23.804688 1.3046875 z " />
  <path
     d="m 30.601333,13.121542 a 7.5,7.5 0 0 1 -7.836122,7.133709 7.5,7.5 0 0 1 -7.148003,-7.823085 7.5,7.5 0 0 1 7.810023,-7.1622737 7.5,7.5 0 0 1 7.17652,7.7969337"
     fill="#ffffff"
     id="path14" />
  <path
     d="m 20.439706,18.521842 h 2.092951 l 0.523238,-3.908894 c 0.07695,-0.738689 0.138504,-1.477378 0.169283,-2.185288 h 0.06156 c 0.03078,0.70791 0.07695,1.446599 0.169283,2.185288 l 0.523238,3.908894 h 2.154509 L 27.057126,7.0875562 H 25.30274 l -0.323176,6.4019688 c -0.04617,0.938751 -0.04617,1.66205 -0.06156,2.646968 h -0.06156 c -0.12311,-0.984918 -0.215446,-1.723607 -0.338561,-2.646968 l -0.46168,-3.477992 h -1.385042 l -0.507848,3.477992 c -0.138504,0.938751 -0.215451,1.692829 -0.323176,2.646968 h -0.06156 c -0.03078,-0.954139 -0.04617,-1.708217 -0.09234,-2.646968 L 21.378456,7.0875562 h -1.923668 z"
     fill="#3f6eb9"
     id="path22"
     style="fill:#5e81ac;fill-opacity:1" />
</svg>

<?xml version="1.0" encoding="UTF-8" standalone="no"?>
<svg
   height="48"
   width="48"
   version="1.1"
   id="svg8"
   sodipodi:docname="libreoffice3-writer.svg"
   inkscape:version="1.1.2 (0a00cf5339, 2022-02-04)"
   xmlns:inkscape="http://www.inkscape.org/namespaces/inkscape"
   xmlns:sodipodi="http://sodipodi.sourceforge.net/DTD/sodipodi-0.dtd"
   xmlns="http://www.w3.org/2000/svg"
   xmlns:svg="http://www.w3.org/2000/svg"
   xmlns:rdf="http://www.w3.org/1999/02/22-rdf-syntax-ns#"
   xmlns:cc="http://creativecommons.org/ns#"
   xmlns:dc="http://purl.org/dc/elements/1.1/">
  <metadata
     id="metadata14">
    <rdf:RDF>
      <cc:Work
         rdf:about="">
        <dc:format>image/svg+xml</dc:format>
        <dc:type
           rdf:resource="http://purl.org/dc/dcmitype/StillImage" />
        <dc:title />
      </cc:Work>
    </rdf:RDF>
  </metadata>
  <defs
     id="defs12" />
  <sodipodi:namedview
     pagecolor="#ffffff"
     bordercolor="#666666"
     borderopacity="1"
     objecttolerance="10"
     gridtolerance="10"
     guidetolerance="10"
     inkscape:pageopacity="0"
     inkscape:pageshadow="2"
     inkscape:window-width="1920"
     inkscape:window-height="1031"
     id="namedview10"
     showgrid="false"
     inkscape:zoom="9.4583333"
     inkscape:cx="-25.638767"
     inkscape:cy="27.330397"
     inkscape:window-x="0"
     inkscape:window-y="0"
     inkscape:window-maximized="1"
     inkscape:current-layer="svg8"
     inkscape:document-rotation="0"
     inkscape:pagecheckerboard="0" />
  <path
     id="path2"
     style="fill:#81a1c1;fill-opacity:1;stroke-width:1.15035"
     d="M 23.804688 1.3046875 A 22.696228 22.696232 0 0 0 1.6914062 19.076172 L 1.6914062 28.923828 A 22.696228 22.696232 0 0 0 23.804688 46.695312 A 22.696228 22.696232 0 0 0 46.5 24 A 22.696228 22.696232 0 0 0 23.804688 1.3046875 z " />
  <g
     fill="none"
     stroke="#fefefe"
     stroke-linecap="round"
     stroke-width="2"
     id="g16"
     transform="translate(-0.18584736,1.0244838)">
    <path
       d="M 22.5,23 H 30"
       id="path4" />
    <path
       d="m 32.5,23 h 5"
       id="path6" />
    <path
       d="m 22.5,28 h 10"
       id="path8" />
    <path
       d="m 22.5,33 h 5"
       id="path10" />
    <path
       d="m 32.5,33 h 5"
       id="path12" />
    <path
       d="M 22.5,38 H 35"
       id="path14-3" />
  </g>
  <path
     id="path839"
     style="fill:#5e81ac;fill-opacity:1;stroke-width:1.15035"
     d="M 23.804688 1.3046875 C 11.269908 1.3046875 1.1074229 11.465217 1.1074219 24 C 1.1074219 36.534782 11.269906 46.695313 23.804688 46.695312 L 23.804688 1.3046875 z " />
  <path
     d="m 30.601333,13.121542 a 7.5,7.5 0 0 1 -7.836122,7.133709 7.5,7.5 0 0 1 -7.148003,-7.823085 7.5,7.5 0 0 1 7.810023,-7.1622737 7.5,7.5 0 0 1 7.17652,7.7969337"
     fill="#ffffff"
     id="path14" />
  <path
     id="path22"
     style="fill:#5e81ac;fill-opacity:1"
     d="M 19.455078 7.0878906 L 20.439453 18.521484 L 22.533203 18.521484 L 23.056641 14.613281 C 23.133591 13.874592 23.19383 13.135644 23.224609 12.427734 L 23.287109 12.427734 C 23.317889 13.135644 23.362745 13.874592 23.455078 14.613281 L 23.978516 18.521484 L 26.132812 18.521484 L 27.056641 7.0878906 L 25.302734 7.0878906 L 24.980469 13.490234 C 24.934299 14.428985 24.933359 15.151801 24.917969 16.136719 L 24.855469 16.136719 C 24.732359 15.151801 24.640693 14.413595 24.517578 13.490234 L 24.056641 10.011719 L 22.671875 10.011719 L 22.164062 13.490234 C 22.025558 14.428985 21.947569 15.18258 21.839844 16.136719 L 21.779297 16.136719 C 21.748517 15.18258 21.731717 14.428985 21.685547 13.490234 L 21.378906 7.0878906 L 19.455078 7.0878906 z " />
</svg>
